X:1
T:Con el Vino y con el Pan - Intro
T:Con el Vino y con el Pan - Intermedio
T:Misa - Ofertorio
%%score 1 { 2 | 3 } 4 5
L:1/8
Q:1/4=80
M:6/8
K:D
V:1 tab stafflines=6 strings=E2,A2,D3,G3,B3,E4 nm="Classical Guitar" snm="Guit."
V:2 treble nm="Piano" snm="Pno."
V:3 bass 
V:4 treble transpose=-14 nm="Tenor Saxophone" snm="T. Sax."
V:5 treble transpose=-9 nm="Altsaxophon" snm="A.sax."
V:1
"F#7#9" [!4!F,!3!^A,!2!E!1!A][!4!F,!3!A,!2!E!1!A][!4!F,!3!A,!2!E!1!A] [!4!F,!3!A,!2!E!1!A] x2 | %1
"Bm"!mf! !5!B,,>!mp![!5!B,,!4!F,!3!B,!2!D!1!F][!5!B,,!4!F,!3!B,!2!D!1!F]/[!5!B,,!4!F,!3!B,!2!D!1!F]/!mf! [!5!B,,!4!F,!3!B,!2!C!1!F]>!mp![!5!B,,!4!F,!3!B,!2!C!1!F][!5!B,,!4!F,!3!B,!2!C!1!F]/[!5!B,,!4!F,!3!B,!2!C!1!F]/ | %2
"A"!mf! !5!A,,>!mp![!5!A,,!4!E,!3!A,!2!C!1!E][!5!A,,!4!E,!3!A,!2!C!1!E]/[!5!A,,!4!E,!3!A,!2!C!1!E]/!mf! [!5!A,,!4!E,!3!A,!2!B,!1!E]!mp![!5!A,,!4!E,!3!A,!2!B,!1!E]/[!5!A,,!4!E,!3!A,!2!B,!1!E]/[!5!A,,!4!E,!3!A,!2!B,!1!E]/[!5!A,,!4!E,!3!A,!2!B,!1!E]/ | %3
"Bm"!mf! !5!B,,>!mp![!5!B,,!4!F,!3!B,!2!D!1!F][!5!B,,!4!F,!3!B,!2!D!1!F]/[!5!B,,!4!F,!3!B,!2!D!1!F]/!mf! [!5!B,,!4!F,!3!B,!2!C!1!F]>!mp![!5!B,,!4!F,!3!B,!2!C!1!F][!5!B,,!4!F,!3!B,!2!C!1!F]/[!5!B,,!4!F,!3!B,!2!C!1!F]/ | %4
"A"!mf! !5!A,,>!mp![!5!A,,!4!E,!3!A,!2!C!1!E][!5!A,,!4!E,!3!A,!2!C!1!E]/[!5!A,,!4!E,!3!A,!2!C!1!E]/!mf! [!6!F,,!5!C,!4!F,!3!^A,!2!C!1!F]!mf![!6!F,,!5!C,!4!F,!3!A,!2!C!1!F]!mf![!6!F,,!5!C,!4!F,!3!A,!2!C!1!F] | %5
"Bm"!mf! !5!B,,>!mp![!5!B,,!4!F,!3!B,!2!D!1!F][!5!B,,!4!F,!3!B,!2!D!1!F]/[!5!B,,!4!F,!3!B,!2!D!1!F]/!mf!"^Con nuestras..." [!5!B,,!4!F,!3!B,!2!C!1!F]>!mp![!5!B,,!4!F,!3!B,!2!C!1!F][!5!B,,!4!F,!3!B,!2!C!1!F]/[!5!B,,!4!F,!3!B,!2!C!1!F]/ |] %6
V:2
 [EFA^A][EF=A^A][EF=A^A] [EF=A^A] z2 | B>dB f3/2d3/2 | c3/2e3/2{/c} d3/2c3/2 | B>dB f3/2d3/2 | %4
 c3/2e3/2{/c} d3/2c3/2 | B>dB f3/2d3/2 |] %6
V:3
 z6 | [F,B,D]3 [F,B,C]3 | [E,A,C]3 [E,A,B,]3/2[E,A,C]3/2 | [F,B,D]3 [F,B,C]3 | %4
 [E,A,C]3 [E,A,B,]3/2[E,A,C]3/2 | [F,B,D]3 [F,B,C]3 |] %6
V:4
[K:E] z4 cd | e3 g3 | f3/2e3/2 d3/2f3/2 | g/e/ c2 e3/2f3/2 | (d/e/d/e/d/e/) dc=c | c6 |] %6
V:5
[K:B] z4 bc' | d'3 b3 | a3 c'3 | d'/b/ g2 b3/2c'3/2 | (a/b/a/b/a/b/) ag=g | g6 |] %6

